X:1
T:Hymn to Joy
T:Hymn to Joy
T:(from Symphony n.9)
T:Beethoven
T:gimbrunnone
C:Beethoven
Z:gimbrunnone
L:1/8
M:4/4
K:D
V:1 bass nm="Violonchelo" snm="Vc."
V:1
!p!"^A" F,2 z2 G,2 A,2 | A,2 z2 F,2 E,2 | D,2 z2 E,2 F,2 | F,2 z2 E,4 | F,2 z2 G,2 A,2 | %5
 A,2 z2 F,2 E,2 | D,2 z2 E,2 F,2 | E,2 z2 D,4 |: E,2 z2 F,2 D,2 | E,2 z2 F,2 D,2 | %10
"_cresc." E,2 z2 F,2 E,2 | D,2 E,2 A,,4 |!p! F,2 z2 G,2 A,2 | A,2 z2 F,2 E,2 | D,2 z2 E,2 F,2 |1 %15
 E,2 z2 D,4 :|2 E,2 z2 D,2 z2 ||!mf!"^B" F,2 F,2 G,2 A,2 | A,2 G,2 F,2 E,2 | D,2 D,2 E,2 F,2 | %20
 F,2 z2 E,2 z2 | F,2 F,2 G,2 A,2 | A,2 G,2 F,2 E,2 | D,2 D,2 E,2 F,2 | E,2 z2 D,4 | %25
"^C" E,2 E,2 F,2 D,2 | E,2 z2 F,2 D,2 | E,2 z2 F,2 E,2 |"_cresc." D,2 E,2 A,,4 | F,2 z2 G,2 A,2 | %30
 A,2 z2 F,2 E,2 | D,2 z2 E,2 F,2 | E,2 z2 D,4 |!f!"^D" E,2 E,2 F,2 D,2 | E,2 z2 F,2 D,2 | %35
 E,2 z2 F,2 E,2 | D,2 E,2 A,,4 | F,2 F,2 G,2 A,2 | A,2 G,2 F,2 E,2 | D,2 D,2 E,2 F,2 | %40
 E,2 z2 D,2 z2 |!p!"^E" vD,2 z2 z4 | A,,2 z2 z4 | A,2 z2 z4 | A,2 z2 z2 A,,2 | D,2 z2 z4 | %46
 A,,2 z2 z4 | F,2 D,2 A,2 A,2 | A,2 z2 D,2 A,2 | A,2 z2 z2 A,,2 | A,2 z2 z2 A,,2 | A,2 z2 z2 F,2 | %52
 B,,2 z2 A,2 A,,2 | D,2 z2 z4 | A,,2 z2 z4 | F,2 D,2 A,2 A,2 | A,2 z2 D,2 A,2 | %57
!mp!"^F" A,2 A,,2 A,2 A,2 | A,2 A,,2 A,2 A,2 | A,2 A,2 F,2 F,2 | B,,2 z2 A,2 A,,2 | D,4 D,4 | %62
!>(! A,,6 G,2!>)! |!p! F,2 F,2 D,2 D,2 | A,,2 A,,2 D,2 z2 |!f!"^G" D,2 D,2 D,2 D,2 | %66
 A,2 A,2 A,2 C2 | D2 A,2 A,2 A,2 | A,4 A,,4 | D,2 D,2 D,2 D,2 | G,2 G,2 G,2 G,2 | A,2 A,2 A,2 A,2 | %72
 A,4 .D,2 .F,2 |"^H" A,2 A,2 A,2 A,2 | A,2 A,2 A,2 A,2 | A,2 A,2 _B,2 B,2 | B,2 z2 A,2 A,,2 | %77
 D,2 D,2 D,2 D,2 | G,2 G,2 G,2 G,2 | A,2 A,2 A,2 A,2 |!ff!"^I" A,,4 D,2 D,2 | A,,4 A,,2 A,,2 | %82
 A,,2 A,,2 A,,2 A,,2 | A,,2 A,,2 _B,,2 B,,2 | B,,2 z2 A,,2 A,,2 | D,2 D,2 D,2 D,2 | %86
 G,2 G,2 G,2 G,2 | A,2 F,2 D,2 D,2 | A,2 A,,2 D,4 |] %89

